Hatter-kde/actions/24/draw-watercolor.svg

<svg xmlns="http://www.w3.org/2000/svg" viewBox="0 0 24 24">
  <defs id="defs3051">
    <style type="text/css" id="current-color-scheme">
      .ColorScheme-Text {
        color:#363636;
      }
      </style>
  </defs>
 <path style="fill:currentColor;fill-opacity:1;stroke:none" 
     d="M 19.513672 4.0078125 A 2 9 45 0 0 12.068359 9.1054688 A 2 9 45 0 0 8.5253906 13.21875 C 9.6014506 13.56139 10.440563 14.400495 10.783203 15.476562 A 2 9 45 0 0 14.896484 11.933594 A 2 9 45 0 0 19.845703 4.15625 A 2 9 45 0 0 19.513672 4.0078125 z M 17.5 12 C 17.01355 13.70252 15.823758 15.166141 15.298828 16.337891 C 15.115128 16.686281 15 17.07729 15 17.5 C 15 18.885 16.115 20 17.5 20 C 18.885 20 20 18.885 20 17.5 C 20 17.07729 19.886825 16.686281 19.703125 16.337891 C 19.178205 15.166141 17.98645 13.70252 17.5 12 z M 8 14.664062 C 3.99999 15.735864 7 18.26795 4 20 C 8.00339 20 10 17.99918 10 16.664062 C 10 15.999182 10.0676 14.774622 8 14.664062 z M 18.642578 15.859375 C 19.161428 16.219975 19.5 16.81754 19.5 17.5 C 19.5 18.608 18.608 19.5 17.5 19.5 C 16.81752 19.5 16.219975 19.161458 15.859375 18.642578 C 16.182895 18.867438 16.57446 19 17 19 C 18.108 19 19 18.108 19 17 C 19 16.57446 18.867438 16.182895 18.642578 15.859375 z "
     class="ColorScheme-Text"
     />
</svg>

<?xml version="1.0" encoding="UTF-8"?>
<svg viewBox="0 0 24 24" xmlns="http://www.w3.org/2000/svg">
 <defs id="defs3051">
  <style id="current-color-scheme" type="text/css">.ColorScheme-Text {
        color:#363636;
      }</style>
 </defs>
 <path class="ColorScheme-Text" d="m19.514 4.0078a2 9 45 0 0-7.4453 5.0977 2 9 45 0 0-3.543 4.1133c1.0761 0.34264 1.9152 1.1817 2.2578 2.2578a2 9 45 0 0 4.1133-3.543 2 9 45 0 0 4.9492-7.7773 2 9 45 0 0-0.33203-0.14844zm-2.0137 7.9922c-0.48645 1.7025-1.6762 3.1661-2.2012 4.3379-0.1837 0.34839-0.29883 0.7394-0.29883 1.1621 0 1.385 1.115 2.5 2.5 2.5s2.5-1.115 2.5-2.5c0-0.42271-0.11318-0.81372-0.29688-1.1621-0.52492-1.1718-1.7167-2.6354-2.2031-4.3379zm-9.5 2.6641c-4 1.0718-1 3.6039-4 5.3359 4.0034 0 6-2.0008 6-3.3359 0-0.66488 0.0676-1.8894-2-2zm10.643 1.1953c0.51885 0.3606 0.85742 0.95816 0.85742 1.6406 0 1.108-0.892 2-2 2-0.68248 0-1.28-0.33854-1.6406-0.85742 0.32352 0.22486 0.71508 0.35742 1.1406 0.35742 1.108 0 2-0.892 2-2 0-0.42554-0.13256-0.8171-0.35742-1.1406z" fill="currentColor"/>
</svg>
